src/assets/artificalIntellegence.svg

<svg xmlns="http://www.w3.org/2000/svg" width="82" height="51" fill="none" viewBox="0 0 82 51"><path fill="#2ECC82" d="M66.2789 25.5781C66.2789 31.5801 66.2789 37.58 66.2789 43.5777C66.2789 48.2306 63.5065 50.9936 58.8378 51C46.7897 51 34.7393 51 22.6869 51C18.1139 51 15.3128 48.2146 15.3064 43.6701C15.3064 31.5599 15.3064 19.4497 15.3064 7.33944C15.3064 2.78854 18.1044 0.00956071 22.6647 0.00956071C34.7171 -0.0031869 46.7684 -0.0031869 58.8187 0.00956071C63.5001 0.00956071 66.2693 2.76623 66.2789 7.41273C66.2874 13.4721 66.2874 19.5272 66.2789 25.5781ZM20.9693 25.5112C20.9693 30.3457 20.9693 35.177 20.9693 40.0116C20.9693 43.447 22.8463 45.3241 26.2912 45.3305C35.9556 45.3496 45.6222 45.3496 55.2909 45.3305C58.7294 45.3305 60.6001 43.4439 60.6065 40.0052C60.6214 30.3404 60.6214 20.6734 60.6065 11.0044C60.6065 7.56889 58.7262 5.69181 55.2845 5.68543C45.6201 5.66631 35.9535 5.66631 26.2848 5.68543C22.8431 5.68543 20.9821 7.5689 20.9693 11.0108C20.9534 15.8421 20.9693 20.6798 20.9693 25.5112V25.5112Z"/><path fill="#2ECC82" d="M5.87959 14.4336C4.44873 14.4336 3.01151 14.5388 1.59339 14.3826C1.03252 14.3221 0.538566 13.6783 0 13.3023C0.490764 12.9262 0.972008 12.2474 1.47552 12.2315C4.34362 12.1263 7.19576 12.1263 10.0511 12.2315C10.5578 12.2506 11.3768 12.8497 11.4628 13.2927C11.654 14.2743 10.8064 14.44 9.99696 14.44L5.87959 14.4336Z"/><path fill="#2ECC82" d="M75.7846 14.4303C74.3027 14.4303 72.8113 14.5131 71.3422 14.3825C70.8801 14.3411 70.4722 13.7164 70.042 13.3563C70.4531 12.9675 70.8547 12.2536 71.2785 12.2409C74.2932 12.1453 77.31 12.1453 80.3289 12.2409C80.7528 12.2409 81.1543 12.9803 81.5654 13.3754C81.1224 13.726 80.6986 14.3315 80.2269 14.3793C78.7578 14.5131 77.2664 14.4303 75.7846 14.4303Z"/><path fill="#2ECC82" d="M5.83472 38.8391C4.40385 38.8391 2.96664 38.9538 1.55171 38.7849C1.00039 38.7212 0.522349 38.0296 0.00927734 37.6249C0.512788 37.2775 1.00355 36.6497 1.51981 36.6305C4.37516 36.5349 7.23269 36.5349 10.0923 36.6305C10.5862 36.6497 11.0483 37.3094 11.5358 37.6727C11.0642 38.0615 10.6244 38.7275 10.1177 38.7817C8.7028 38.9379 7.27195 38.8391 5.83472 38.8391Z"/><path fill="#2ECC82" d="M75.8709 36.586C77.3018 36.586 78.739 36.4904 80.1539 36.6401C80.6606 36.6943 81.1099 37.3476 81.572 37.7269C81.129 38.0966 80.6957 38.7722 80.2431 38.7849C77.2794 38.8805 74.3158 38.8805 71.3521 38.7849C70.9027 38.7849 70.4757 38.0997 70.0359 37.7333C70.498 37.3508 70.9346 36.6879 71.4285 36.6401C72.8977 36.4935 74.389 36.586 75.8709 36.586Z"/><path fill="#2ECC82" d="M5.68833 22.5348C4.31165 22.5348 2.92223 22.6495 1.56466 22.4806C1.01016 22.4105 0.532114 21.7317 0.019043 21.3333C0.51618 20.9764 1.00693 20.3358 1.51681 20.3167C4.37217 20.219 7.22969 20.219 10.0893 20.3167C10.5832 20.3358 11.0453 21.0019 11.5392 21.3684C11.0708 21.754 10.631 22.4264 10.1275 22.4774C8.66158 22.6304 7.17019 22.5348 5.68833 22.5348Z"/><path fill="#2ECC82" d="M75.6764 22.5349C74.2997 22.5349 72.9103 22.6496 71.5559 22.4807C71.011 22.4106 70.5457 21.719 70.0454 21.3111C70.5457 20.9637 71.0397 20.3327 71.5496 20.3168C74.4177 20.2212 77.2667 20.218 80.122 20.3168C80.616 20.3359 81.078 21.0116 81.5688 21.3844C81.0876 21.7669 80.6319 22.4234 80.1189 22.4743C78.6497 22.6305 77.1583 22.5349 75.6764 22.5349Z"/><path fill="#2ECC82" d="M5.68837 30.744C4.2575 30.744 2.82028 30.8428 1.40535 30.6898C0.908217 30.6356 0.474778 29.96 0.0126953 29.568C0.462031 29.2079 0.9018 28.5514 1.3607 28.5354C4.32015 28.442 7.28284 28.442 10.2487 28.5354C10.6916 28.5354 11.109 29.227 11.5392 29.5967C11.0708 29.9791 10.631 30.6388 10.1275 30.6866C8.66161 30.8428 7.17022 30.7472 5.68837 30.744Z"/><path fill="#2ECC82" d="M75.6956 30.7443C74.2647 30.7443 72.8275 30.8463 71.4126 30.6901C70.9186 30.636 70.4948 29.9571 70.0391 29.5651C70.4852 29.205 70.9186 28.5517 71.3743 28.5358C74.2838 28.4402 77.1966 28.4338 80.1061 28.5358C80.6064 28.5549 81.0812 29.2369 81.5688 29.6098C81.0908 29.989 80.6446 30.6423 80.1348 30.6933C78.6688 30.8399 77.1774 30.7443 75.6956 30.7443Z"/><path fill="#2ECC82" d="M40.8708 43.0931C36.0428 43.0931 31.2117 43.0931 26.3837 43.0931C24.0829 43.0931 23.2161 42.2199 23.2129 39.9062C23.2129 30.3009 23.2129 20.6955 23.2129 11.0902C23.2129 8.78928 24.0829 7.92244 26.3997 7.90332C36.0025 7.90332 45.6064 7.90332 55.2113 7.90332C57.5122 7.90332 58.3821 8.77334 58.3981 11.0902C58.3981 20.6955 58.3981 30.3009 58.3981 39.9062C58.3981 42.2071 57.5249 43.074 55.2113 43.0931C50.4216 43.1027 45.6446 43.0931 40.8708 43.0931ZM35.8421 28.6947C37.2602 28.6947 38.6401 28.6214 40.004 28.7393C40.4151 28.7743 40.8676 29.2747 41.1417 29.6699C41.4158 30.065 41.3265 30.6674 41.6102 30.9988C41.9288 31.3908 42.5088 31.5916 42.9741 31.8784C43.2036 31.3844 43.7294 30.8076 43.6115 30.4124C42.4132 26.2376 41.1513 22.0818 39.7873 17.9548C39.628 17.4768 38.8312 16.9732 38.3022 16.9286C38.0126 16.9541 37.7341 17.0521 37.4924 17.2136C37.2507 17.3752 37.0536 17.595 36.9192 17.8528C35.5319 22.0787 34.22 26.3279 32.9835 30.6004C32.8879 30.9191 33.3787 31.7222 33.7261 31.8178C34.0734 31.9134 34.8 31.5278 35.0008 31.1549C35.4151 30.4411 35.5616 29.5838 35.8421 28.6947ZM47.7447 24.4625C47.7447 22.442 47.7288 20.4215 47.7447 18.4073C47.7447 17.5469 47.5599 16.9223 46.5433 16.9414C45.5872 16.9414 45.4916 17.601 45.4948 18.3627C45.5076 22.3995 45.5076 26.4362 45.4948 30.4729C45.4948 31.3079 45.6255 32.1174 46.6485 31.8656C47.0946 31.7573 47.6587 31.0052 47.6874 30.5144C47.8116 28.5034 47.7447 26.4798 47.7447 24.4625V24.4625Z"/><path fill="#2ECC82" d="M40.3732 26.754H36.3101L38.3401 19.7747C39.0953 22.3624 39.7072 24.4626 40.3732 26.754Z"/></svg>

<svg xmlns="http://www.w3.org/2000/svg" width="82" height="51" fill="none"><path fill="#2ECC82" d="M66.279 25.578v18c0 4.653-2.772 7.416-7.441 7.422H22.687c-4.573 0-7.374-2.785-7.38-7.33V7.34c0-4.551 2.797-7.33 7.358-7.33 12.052-.013 24.103-.013 36.154 0 4.681 0 7.45 2.756 7.46 7.403.008 6.06.008 12.114 0 18.165Zm-45.31-.067v14.5c0 3.436 1.877 5.313 5.322 5.32a7377.2 7377.2 0 0 0 29 0c3.438 0 5.31-1.887 5.316-5.326.014-9.665.014-19.332 0-29 0-3.436-1.88-5.313-5.322-5.32a7377.2 7377.2 0 0 0-29 0c-3.442 0-5.303 1.884-5.316 5.326-.016 4.831 0 9.669 0 14.5ZM5.88 14.434c-1.431 0-2.868.105-4.287-.051-.56-.06-1.054-.705-1.593-1.08.49-.377.972-1.056 1.476-1.072 2.868-.105 5.72-.105 8.575 0 .507.02 1.326.619 1.412 1.062.191.981-.657 1.147-1.466 1.147l-4.117-.006Zm69.905-.004c-1.482 0-2.974.083-4.443-.047-.462-.042-.87-.667-1.3-1.027.411-.389.813-1.102 1.236-1.115 3.015-.096 6.032-.096 9.05 0 .425 0 .826.74 1.237 1.134-.443.351-.866.957-1.338 1.004-1.47.134-2.96.051-4.442.051ZM5.835 38.84c-1.431 0-2.868.114-4.283-.055C1 38.72.522 38.03.009 37.625c.504-.347.995-.975 1.51-.995 2.856-.095 5.714-.095 8.573 0 .494.02.956.68 1.444 1.043-.472.389-.912 1.054-1.418 1.109-1.415.156-2.846.057-4.283.057Zm70.035-2.254c1.432 0 2.869-.096 4.284.054.507.054.956.708 1.418 1.087-.443.37-.876 1.045-1.329 1.058a137.85 137.85 0 0 1-8.89 0c-.45 0-.877-.685-1.317-1.052.462-.382.899-1.045 1.392-1.093 1.47-.147 2.961-.054 4.443-.054ZM5.688 22.535c-1.376 0-2.766.114-4.123-.054-.555-.07-1.033-.75-1.546-1.148.497-.357.988-.997 1.498-1.016a125.4 125.4 0 0 1 8.572 0c.494.019.956.685 1.45 1.051-.468.386-.908 1.058-1.412 1.11-1.465.152-2.957.057-4.439.057Zm69.988 0c-1.376 0-2.766.115-4.12-.054-.545-.07-1.01-.762-1.51-1.17.5-.347.994-.978 1.504-.994 2.868-.096 5.717-.099 8.572 0 .494.019.956.695 1.447 1.067-.481.383-.937 1.04-1.45 1.09-1.47.157-2.96.06-4.443.06ZM5.688 30.744c-1.43 0-2.868.099-4.283-.054-.497-.054-.93-.73-1.392-1.122.449-.36.889-1.017 1.348-1.033a141 141 0 0 1 8.888 0c.443 0 .86.692 1.29 1.062-.468.382-.908 1.042-1.412 1.09-1.465.156-2.957.06-4.439.057Zm70.008 0c-1.431 0-2.868.102-4.283-.054-.494-.054-.918-.733-1.374-1.125.446-.36.88-1.013 1.335-1.03a129.71 129.71 0 0 1 8.732 0c.5.02.975.702 1.463 1.075-.478.379-.924 1.032-1.434 1.083-1.466.147-2.958.051-4.44.051Z"/><path fill="#2ECC82" d="M40.87 43.093H26.385c-2.301 0-3.168-.873-3.171-3.187V11.09c0-2.3.87-3.168 3.187-3.187H55.21c2.301 0 3.171.87 3.187 3.187v28.816c0 2.301-.873 3.168-3.187 3.187-4.79.01-9.566 0-14.34 0Zm-5.028-14.398c1.418 0 2.798-.074 4.162.044.411.035.864.536 1.138.93.274.396.184.998.468 1.33.319.392.899.593 1.364.88.23-.495.755-1.071.638-1.467a328.31 328.31 0 0 0-3.825-12.457c-.159-.478-.956-.982-1.485-1.026a1.73 1.73 0 0 0-1.383.924A375.928 375.928 0 0 0 32.984 30.6c-.096.32.395 1.122.742 1.218.347.095 1.074-.29 1.275-.663.414-.714.56-1.571.841-2.46Zm11.903-4.233c0-2.02-.016-4.04 0-6.055 0-.86-.185-1.485-1.202-1.466-.956 0-1.051.66-1.048 1.422a1909.6 1909.6 0 0 1 0 12.11c0 .835.13 1.644 1.154 1.393.446-.109 1.01-.86 1.038-1.352.125-2.01.058-4.034.058-6.052Z"/><path fill="#2ECC82" d="M40.373 26.754H36.31l2.03-6.98a6349.53 6349.53 0 0 1 2.033 6.98Z"/></svg>
